packages/tokens/icons/report1/size32Px.svg

<svg viewBox="0 0 32 32" fill="none" xmlns="http://www.w3.org/2000/svg" width="1em" height="1em"><path d="M26 8C26.2761 8 26.5 7.77614 26.5 7.5C26.5 7.22386 26.2761 7 26 7V8ZM25.9142 6.91421L26.2678 6.56066L25.9142 6.91421ZM22.0858 3.08579L21.7322 3.43934L22.0858 3.08579ZM24.5 29L7.5 29V30L24.5 30V29ZM6 27.5L6 4.5H5L5 27.5H6ZM7.5 3L20.6716 3V2L7.5 2V3ZM26 8.32843L26 27.5H27L27 8.32843H26ZM21 2.98077V5.5H22V2.98077H21ZM23.5 8H26V7L23.5 7V8ZM21.7322 3.43934L25.5607 7.26777L26.2678 6.56066L22.4393 2.73223L21.7322 3.43934ZM21 5.5C21 6.88071 22.1193 8 23.5 8V7C22.6716 7 22 6.32843 22 5.5H21ZM27 8.32843C27 7.66539 26.7366 7.0295 26.2678 6.56066L25.5607 7.26777C25.842 7.54907 26 7.9306 26 8.32843H27ZM20.6716 3C21.0694 3 21.4509 3.15804 21.7322 3.43934L22.4393 2.73223C21.9705 2.26339 21.3346 2 20.6716 2V3ZM7.5 29C6.67157 29 6 28.3284 6 27.5H5C5 28.8807 6.11929 30 7.5 30V29ZM24.5 30C25.8807 30 27 28.8807 27 27.5H26C26 28.3284 25.3284 29 24.5 29V30ZM6 4.5C6 3.67157 6.67157 3 7.5 3V2C6.11929 2 5 3.11929 5 4.5H6Z" fill="currentColor"/><path d="M8.5 19.5H19.5M8.5 22.5L23.5 22.5M8.5 25.5H19.5" stroke="currentColor" stroke-linecap="round"/><path d="M9.5 7C9.5 6.72386 9.72386 6.5 10 6.5H12C12.2761 6.5 12.5 6.72386 12.5 7L12.5 15C12.5 15.2761 12.2761 15.5 12 15.5H10C9.72386 15.5 9.5 15.2761 9.5 15L9.5 7ZM14.5 9C14.5 8.72386 14.7239 8.5 15 8.5L17 8.5C17.2761 8.5 17.5 8.72386 17.5 9V15C17.5 15.2761 17.2761 15.5 17 15.5H15C14.7239 15.5 14.5 15.2761 14.5 15L14.5 9ZM19.5 11C19.5 10.7239 19.7239 10.5 20 10.5H22C22.2761 10.5 22.5 10.7239 22.5 11V15C22.5 15.2761 22.2761 15.5 22 15.5H20C19.7239 15.5 19.5 15.2761 19.5 15V11Z" stroke="currentColor" stroke-linejoin="round"/><line x1="8.5" y1="15.5" x2="23.5" y2="15.5" stroke="currentColor" stroke-linecap="round"/></svg>

<svg xmlns="http://www.w3.org/2000/svg" fill="none" viewBox="0 0 32 32" width="1em" height="1em"><path fill="currentColor" d="M26 8a.5.5 0 0 0 0-1v1Zm-.086-1.086.354-.353-.354.353Zm-3.828-3.828-.354.353.354-.353ZM24.5 29h-17v1h17v-1ZM6 27.5v-23H5v23h1ZM7.5 3h13.172V2H7.5v1ZM26 8.328V27.5h1V8.328h-1Zm-5-5.347V5.5h1V2.98h-1ZM23.5 8H26V7h-2.5v1Zm-1.768-4.56 3.829 3.828.707-.707-3.829-3.829-.707.707ZM21 5.5A2.5 2.5 0 0 0 23.5 8V7A1.5 1.5 0 0 1 22 5.5h-1Zm6 2.828a2.5 2.5 0 0 0-.732-1.767l-.707.707A1.5 1.5 0 0 1 26 8.328h1ZM20.672 3a1.5 1.5 0 0 1 1.06.44l.707-.708A2.5 2.5 0 0 0 20.672 2v1ZM7.5 29A1.5 1.5 0 0 1 6 27.5H5A2.5 2.5 0 0 0 7.5 30v-1Zm17 1a2.5 2.5 0 0 0 2.5-2.5h-1a1.5 1.5 0 0 1-1.5 1.5v1ZM6 4.5A1.5 1.5 0 0 1 7.5 3V2A2.5 2.5 0 0 0 5 4.5h1Z"/><path stroke="currentColor" stroke-linecap="round" d="M8.5 19.5h11m-11 3h15m-15 3h11"/><path stroke="currentColor" stroke-linejoin="round" d="M9.5 7a.5.5 0 0 1 .5-.5h2a.5.5 0 0 1 .5.5v8a.5.5 0 0 1-.5.5h-2a.5.5 0 0 1-.5-.5V7Zm5 2a.5.5 0 0 1 .5-.5h2a.5.5 0 0 1 .5.5v6a.5.5 0 0 1-.5.5h-2a.5.5 0 0 1-.5-.5V9Zm5 2a.5.5 0 0 1 .5-.5h2a.5.5 0 0 1 .5.5v4a.5.5 0 0 1-.5.5h-2a.5.5 0 0 1-.5-.5v-4Z"/><path stroke="currentColor" stroke-linecap="round" d="M8.5 15.5h15"/></svg>
